Modules/BetterCms.Module.Root/Scss/base_64/icons/cp-translate.svg

<svg xmlns="http://www.w3.org/2000/svg" width="20" height="16.938" viewBox="0 0 20 16.938">
 <g>
  <path d="m17.65 16.93l-.744-2.482h-2.777l-.672 2.482h-2.262l2.948-9.67h2.849l3.006 9.67h-2.348m-1.53-6.139c-.176-.59-.371-1.343-.532-1.919h-.049c-.144.591-.321 1.343-.483 1.919l-.66 2.11h2.401l-.677-2.11m-9.514.846l-.17-1.197c2.275-.326 3.364-1.197 3.759-3.004.126-.571.018-1.031-.33-1.402-.37-.397-.966-.659-1.627-.801-.534 1.21-1.452 2.968-2.66 4.209.008.029.015.067.023.089l-.156.055c-.438.428-.913.786-1.423 1.022-.86.399-1.732.428-2.589.086-1.375-.546-1.487-1.472-1.431-1.975.161-1.472 2.225-3.133 4.024-4.056-.018-.643-.032-1.272-.041-1.858-.025 0-.052.001-.077.001-1.436 0-2.534-.077-2.636-.084l.085-1.206c.025.002 1.154.079 2.612.078-.007-.791-.009-1.382-.009-1.586h1.2c0 .478.004 1.01.009 1.566 1.526-.051 3.173-.216 4.248-.632l.431 1.129c-1.225.474-3.025.655-4.662.711.007.452.017.912.029 1.367.246-.083.474-.145.673-.177.488-.077 1.036-.102 1.599-.062.101-.257.155-.415.158-.423l1.134.396c-.008.023-.034.099-.078.218.795.202 1.529.557 2.039 1.104.621.667.839 1.528.628 2.49-.502 2.295-2.015 3.547-4.762 3.942m-2.532-5.634c-1.379.803-2.786 2.003-2.88 2.85-.013.116-.047.428.679.717.549.217 1.087.199 1.648-.06.266-.123.521-.304.768-.508-.098-.771-.167-1.848-.215-2.999m2.885-.902c-.308 0-.609.023-.886.066-.233.037-.515.126-.819.249.032.897.073 1.732.124 2.424.661-.875 1.21-1.9 1.599-2.739h-.018" fill="#06273f"/>
  <path d="m17.746 16.93l-.714-2.369h-2.663l-.645 2.369h-2.169l2.827-9.23h2.733l2.883 9.23h-2.252m-1.467-5.86c-.17-.563-.356-1.282-.511-1.832h-.047c-.137.565-.308 1.282-.463 1.832l-.633 2.014h2.303l-.649-2.014m-9.126.807l-.163-1.142c2.182-.311 3.227-1.143 3.606-2.868.12-.545.017-.983-.316-1.338-.356-.379-.928-.628-1.561-.765-.513 1.156-1.393 2.833-2.552 4.018.008.028.015.064.023.085l-.15.053c-.421.408-.876.75-1.365.975-.825.381-1.661.409-2.484.082-1.318-.521-1.426-1.404-1.372-1.885.155-1.405 2.135-2.991 3.86-3.871-.018-.614-.031-1.215-.04-1.774-.024 0-.05.001-.073.001-1.378 0-2.431-.073-2.529-.08l.082-1.151c.024.001 1.106.075 2.505.075-.007-.756-.009-1.32-.009-1.515h1.152c0 .457.003.965.008 1.495 1.463-.049 3.043-.206 4.075-.603l.413 1.077c-1.175.452-2.901.626-4.472.679.007.432.016.87.028 1.305.236-.079.455-.139.646-.169.468-.073.994-.097 1.533-.059.097-.246.149-.396.152-.404l1.088.378c-.008.022-.033.095-.075.209.762.192 1.466.531 1.956 1.053.595.636.804 1.459.601 2.377-.481 2.191-1.932 3.385-4.567 3.762m-2.429-5.377c-1.321.766-2.672 1.911-2.761 2.72-.013.111-.046.409.65.684.527.208 1.044.19 1.581-.057.256-.117.5-.29.737-.484-.094-.736-.16-1.765-.207-2.863m2.768-.862c-.296 0-.585.023-.85.063-.224.036-.494.121-.785.238.03.857.069 1.654.119 2.315.634-.836 1.16-1.815 1.533-2.616h-.017" fill="#0f5b90"/>
 </g>
</svg>

<svg xmlns="http://www.w3.org/2000/svg" xmlns:xlink="http://www.w3.org/1999/xlink" preserveAspectRatio="xMidYMid" width="20" height="16.938" viewBox="0 0 20 16.938">
  <defs>
    <style>
      .cls-1 {
        fill: #06273f;
      }

      .cls-1, .cls-2 {
        fill-rule: evenodd;
      }

      .cls-2 {
        fill: #0f5b90;
      }
    </style>
  </defs>
  <g>
    <path d="M17.650,16.930 L16.906,14.448 L14.129,14.448 L13.457,16.930 L11.195,16.930 L14.143,7.260 L16.992,7.260 L19.998,16.930 L17.650,16.930 ZM16.120,10.791 C15.944,10.201 15.749,9.448 15.588,8.872 L15.539,8.872 C15.395,9.463 15.218,10.215 15.056,10.791 L14.396,12.901 L16.797,12.901 L16.120,10.791 ZM6.606,11.637 L6.436,10.440 C8.711,10.114 9.800,9.243 10.195,7.436 C10.321,6.865 10.213,6.405 9.865,6.034 C9.495,5.637 8.899,5.375 8.238,5.233 C7.704,6.443 6.786,8.201 5.578,9.442 C5.586,9.471 5.593,9.509 5.601,9.531 L5.445,9.586 C5.007,10.014 4.532,10.372 4.022,10.608 C3.162,11.007 2.290,11.036 1.433,10.694 C0.058,10.148 -0.054,9.222 0.002,8.719 C0.163,7.247 2.227,5.586 4.026,4.663 C4.008,4.020 3.994,3.391 3.985,2.805 C3.960,2.805 3.933,2.806 3.908,2.806 C2.472,2.806 1.374,2.729 1.272,2.722 L1.357,1.516 C1.382,1.518 2.511,1.595 3.969,1.594 C3.962,0.803 3.960,0.212 3.960,0.008 L5.160,0.008 C5.160,0.486 5.164,1.018 5.169,1.574 C6.695,1.523 8.342,1.358 9.417,0.942 L9.848,2.071 C8.623,2.545 6.823,2.726 5.186,2.782 C5.193,3.234 5.203,3.694 5.215,4.149 C5.461,4.066 5.689,4.004 5.888,3.972 C6.376,3.895 6.924,3.870 7.487,3.910 C7.588,3.653 7.642,3.495 7.645,3.487 L8.779,3.883 C8.771,3.906 8.745,3.982 8.701,4.101 C9.496,4.303 10.230,4.658 10.740,5.205 C11.361,5.872 11.579,6.733 11.368,7.695 C10.866,9.990 9.353,11.242 6.606,11.637 ZM4.074,6.003 C2.695,6.806 1.288,8.006 1.194,8.853 C1.181,8.969 1.147,9.281 1.873,9.570 C2.422,9.787 2.960,9.769 3.521,9.510 C3.787,9.387 4.042,9.206 4.289,9.002 C4.191,8.231 4.122,7.154 4.074,6.003 ZM6.959,5.101 C6.651,5.101 6.350,5.124 6.073,5.167 C5.840,5.204 5.558,5.293 5.254,5.416 C5.286,6.313 5.327,7.148 5.378,7.840 C6.039,6.965 6.588,5.940 6.977,5.101 L6.959,5.101 Z" class="cls-1"/>
    <path d="M17.746,16.930 L17.032,14.561 L14.369,14.561 L13.724,16.930 L11.555,16.930 L14.382,7.700 L17.115,7.700 L19.998,16.930 L17.746,16.930 ZM16.279,11.070 C16.109,10.507 15.923,9.788 15.768,9.238 L15.721,9.238 C15.584,9.803 15.413,10.520 15.258,11.070 L14.625,13.084 L16.928,13.084 L16.279,11.070 ZM7.153,11.877 L6.990,10.735 C9.172,10.424 10.217,9.592 10.596,7.867 C10.716,7.322 10.613,6.884 10.280,6.529 C9.924,6.150 9.352,5.901 8.719,5.764 C8.206,6.920 7.326,8.597 6.167,9.782 C6.175,9.810 6.182,9.846 6.190,9.867 L6.040,9.920 C5.619,10.328 5.164,10.670 4.675,10.895 C3.850,11.276 3.014,11.304 2.191,10.977 C0.873,10.456 0.765,9.573 0.819,9.092 C0.974,7.687 2.954,6.101 4.679,5.221 C4.661,4.607 4.648,4.006 4.639,3.447 C4.615,3.447 4.589,3.448 4.566,3.448 C3.188,3.448 2.135,3.375 2.037,3.368 L2.119,2.217 C2.143,2.218 3.225,2.292 4.624,2.292 C4.617,1.536 4.615,0.972 4.615,0.777 L5.767,0.777 C5.767,1.234 5.770,1.742 5.775,2.272 C7.238,2.223 8.818,2.066 9.850,1.669 L10.263,2.746 C9.088,3.198 7.362,3.372 5.791,3.425 C5.798,3.857 5.807,4.295 5.819,4.730 C6.055,4.651 6.274,4.591 6.465,4.561 C6.933,4.488 7.459,4.464 7.998,4.502 C8.095,4.256 8.147,4.106 8.150,4.098 L9.238,4.476 C9.230,4.498 9.205,4.571 9.163,4.685 C9.925,4.877 10.629,5.216 11.119,5.738 C11.714,6.374 11.923,7.197 11.720,8.115 C11.239,10.306 9.788,11.500 7.153,11.877 ZM4.724,6.500 C3.403,7.266 2.052,8.411 1.963,9.220 C1.950,9.331 1.917,9.629 2.613,9.904 C3.140,10.112 3.657,10.094 4.194,9.847 C4.450,9.730 4.694,9.557 4.931,9.363 C4.837,8.627 4.771,7.598 4.724,6.500 ZM7.492,5.638 C7.196,5.638 6.907,5.661 6.642,5.701 C6.418,5.737 6.148,5.822 5.857,5.939 C5.887,6.796 5.926,7.593 5.976,8.254 C6.610,7.418 7.136,6.439 7.509,5.638 L7.492,5.638 Z" class="cls-2"/>
  </g>
</svg>
